svgs/duotone/calendar-star.svg

<svg xmlns="http://www.w3.org/2000/svg" viewBox="0 0 448 512"><!-- Font Awesome Pro 6.0.0-alpha2 by @fontawesome - https://fontawesome.com License - https://fontawesome.com/license (Commercial License) --><defs><style>.fa-secondary{opacity:.4}</style></defs><path d="M0 192V464C0 490.5 21.5 512 48 512H400C426.5 512 448 490.5 448 464V192H0ZM320.625 324.75L281 363.375L290.375 418C292.125 427.875 281.75 435.25 273 430.625L224 404.75L175.125 430.625C166.375 435.25 156 427.75 157.75 418L167.125 363.375L127.5 324.75C120.25 317.75 124.25 305.75 134.125 304.25L188.75 296.25L213.25 246.75C217.75 237.75 230.375 237.875 234.75 246.75L259.25 296.25L313.999 304.25C323.75 305.75 327.75 317.75 320.625 324.75Z" class="fa-secondary"/><path d="M400 64H352V32C352 14.327 337.673 0 320 0H320C302.327 0 288 14.327 288 32V64H160V32C160 14.327 145.673 0 128 0H128C110.327 0 96 14.327 96 32V64H48C21.49 64 0 85.49 0 112V192H448V112C448 85.49 426.51 64 400 64ZM313.999 304.25L259.25 296.25L234.75 246.75C230.375 237.875 217.75 237.75 213.25 246.75L188.75 296.25L134.125 304.25C124.25 305.75 120.25 317.75 127.5 324.75L167.125 363.375L157.75 418C156 427.75 166.375 435.25 175.125 430.625L224 404.75L273 430.625C281.75 435.25 292.125 427.875 290.375 418L281 363.375L320.625 324.75C327.75 317.75 323.75 305.75 313.999 304.25Z" class="fa-primary"/></svg>

<svg xmlns="http://www.w3.org/2000/svg" viewBox="0 0 448 512"><!--! Font Awesome Pro 6.0.0-alpha3 by @fontawesome - https://fontawesome.com License - https://fontawesome.com/license (Commercial License) --><defs><style>.fa-secondary{opacity:.4}</style></defs><path class="fa-primary" d="M400 64H352V31.1C352 14.33 337.7 0 320 0S288 14.33 288 31.1V64H160V31.1C160 14.33 145.7 0 128 0S96 14.33 96 31.1V64H48c-26.51 0-48 21.49-48 48L0 192h448l.0002-80C448 85.49 426.5 64 400 64zM313.1 304.3l-54.75-8l-24.5-49.5c-4.375-8.875-17-9-21.5 0l-24.5 49.5l-54.63 8c-9.875 1.5-13.88 13.5-6.625 20.5l39.63 38.63l-9.375 54.63C156 427.8 166.4 435.3 175.1 430.6L224 404.8l49 25.88c8.75 4.625 19.12-2.75 17.38-12.62L281 363.4l39.63-38.63C327.8 317.8 323.8 305.8 313.1 304.3z"/><path class="fa-secondary" d="M0 192l.0002 272c0 26.5 21.5 48 48 48h352c26.5 0 48-21.5 48-48L448 192H0zM320.6 324.8L281 363.4l9.375 54.63c1.75 9.875-8.625 17.25-17.38 12.62L224 404.8l-48.88 25.88C166.4 435.3 156 427.8 157.8 418l9.375-54.63L127.5 324.8c-7.25-7-3.25-19 6.625-20.5l54.63-8l24.5-49.5c4.5-9 17.12-8.875 21.5 0l24.5 49.5l54.75 8C323.8 305.8 327.8 317.8 320.6 324.8z"/></svg>
